X: 34611
T: Road Home, The
R: waltz
M: 3/4
K: Bminor
B4B2|B2d2>B2|A6|A2B2d2|e4g2|g2f2d2|e2<g2-g2|g2b2a2|
g2>a2g2|f2>e2d2|e2-<g2 e2|d4B2|A4A2|A2B2G2|F6|1 G,A,B,DEG:|2 F2E2F2||
G4G2|G2F2D2|G,6-|G,4G2|G4G2|G2A2B2|A6|A2B2A2|
G4G2|G2g2f2|e4-ed|d4B2|A6|A2B2G2|F6|1 F2E2F2:|2 F2E2D2||

